X:16143
T:Swal the Dedes. JB.55
M:4/4
L:1/8
Q:160
S:James Biggins MS, Leeds, 1779.
R:Misc.
O:England
A:Yorkshire
Z:
Z:vmp.Nick Barber & Chris Partingto
K:G
G(B B)d/c/ BdBG|G(B B)d/c/ Bdgd|G(B B)d/c/ BdBG|ecBAG2G,2:|!
|:B(d d)g dgdc|B(d d)g faAe|B(d d)g dgdB|ecBAG2G,2:|]
